X: 1
T: the Gay Gordons
C: J.S.Skinner
R: march
Z: 2008 John Chambers <jc:trillian.mit.edu>
M: C|
L: 1/8
K: G
d2 \
| "G"G2>A2 B2AG | "C"cBcd e2dc | "G"B2g2     B2AG | "D7"B2A2 A2d2 \
| "G"G2>A2 B2AG | "C"cBcd e2dc | "G"B2g2 "D7"dBcA |  "G"B2G2 G2 :|
d2 \
| "G"g2>e2 d2cB | "C"cBcd e2dc | "G"B2g2 "Em"B2AG | "Am"B2A2 "D7"A2d2 \
| "G"g2>e2 d2cB | "C"cBcd e2dc | "G"B2g2 "D7"dBcA |  "G"B2G2 G2 |]
d2 \
| "G"g2>e2 d2cB | "C"cBcd e2dc | "G"B2g2 "Em"B2AG | "A7"B2A2 "D7"A2d2 \
| "G"G2>A2 B2AG | "C"cBcd e2dc | "G"B2g2 "D7"dBcA |  "G"B2G2 G2 |]
